X:1
T:James Gibb editions
T:Occhi, piangete - Lasso
T:#
%%score [ 1 2 3 4 ]
L:1/8
Q:1/4=130
M:4/2
K:F
V:1 treble nm="Soprano" snm="S"
V:2 treble nm="Alto" snm="A"
V:3 treble-8 nm="Tenor" snm="T"
V:4 bass nm="Bass" snm="B"
V:1
"^Occhi, piangete""^Orlando di Lasso\n(1532-94)" z16 | z8 d8- | d8 B8 | G8 F8 | F8 z4 B4 | %5
w: |Oc\-|* chi,|pian- ge-|te; ac-|
 B4 G4 A4 d4 | ^c8 d8- | d16 | d8 z8 | =B8 c4 A4 | A4 A4 F8- | F8 G8 | A8 G8 | A8 G4 G4 | %14
w: com- pa- gna- t'il|co- re,|||che di vo-|stro fal- lir|* mor-|te so-|stie- ne. Co-|
 A2 c4 B4 A2 c4 | A4 z4 z4 G4- | G4 ^F4 G4 (A4- | A2 G2 F6 D2 d4- | d2 c2 B8 A4) | B8 A8- | %20
w: si sem- pre fac- cia-|mo; et|* ne con- vie\-|||ne la\-|
 A8 G8- | G8 F8 | (A6 G2 F4) E4 | C4 D4 E4 E4 | A4 G4 z4 D4 | D4 C4 (D2 E2 F2 G2 | A8) G8- | %27
w: * men\-|* tar|più * * l'al-|trui ch'el no- str'er-|ro- re, ch'el|no- str'er- ro\- * * *|* re,|
 G8 z4 c4- | c4 =B4 c4 _B4- | B4 A4 B4 A4 | F4 (c6 B2 A2 G2 | F2 E2 D8) (G4- | G4 ^F4) G8 |] %33
w: * la\-|* men- tar più|* l'al- trui ch'el|no- str'er\- * * *|* * * ro\-|* * re.|
V:2
 D16 | F16 | D8 _E8- | E8 D4 D4 | C4 D4 _E4 D4 | (D6 E2 F8) | E4 E4 F4 F4 | %7
w: Oc-|chi,|pian- ge\-|* te; ac-|com- pa- gna- t'il|co\- * *|re, ac- com- pa-|
 G4 (G,2 A,2 B,2 C2 D4- | D2 G,2 G8) ^F4 | G8 E4 F4- | F4 F4 D4 D4 | C8 (E8- | F8) D4 E4 | %13
w: gna- t'il * * * *|* * * co-|re, che di|* vo- stro fal-|lir mor\-|* te so-|
 F8 E4 E4 | F4 E2 D2 G2 (F4 E2) | F4 z2 D2 G,2 A,2 B,2 G,2 | B,4 A,2 A,2 D4 E4 | F4 C4 D4 F4- | %18
w: stie- ne. Co-|si sem- pre fac- cia\- *|mo; Co- si sem- pre fac-|cia- mo et ne con-|vie- ne, et ne|
 F4 F4 F8 | D4 F8 E4 | F4 E8 D4 | E4 D4 D4 D4 | F4 E4 z4 C4 | E4 G4 G4 G4 | F4 D4 F8- | %25
w: * con- vie-|ne la- men-|tar più l'al-|trui ch'el no- str'er-|ro- re, la-|men- tar più l'al-|trui ch'el no\-|
 F4 F4 (F2 E2 D2 E2 | F8) D8 | _E8 D4 C4 | _E4 D4 (G,2 A,2 B,2 C2 | D4) D8 F4 | A4 G4 C8 | %31
w: * str'er- ro\- * * *|* re,|la- men- tar|più l'al- trui * * *|* la- men-|tar più l'al-|
 D4 F4 F4 D4 | D8 D8 |] %33
w: trui ch'el no- str'er-|ro- re.|
V:3
 z16 | d16 | G12 G4 | B8- B8 | A4 A4 c4 F4 | G4 G4 A8 | A4 A8 B4 | G4 d8 B4 | (B8 A8) | d8 z4 c4 | %10
w: |Oc-|chi, pian-|ge\- *|te; ac- com- pa-|gna- t'il co-|re, ac- com-|pa- gna- fil|co\- *|re, che|
 d4 c4 B4 B4 | F8 c8- | c8 =B4 c4 | F8 c8 | z8 z4 G4 | d4 c2 B2 _e2 (d4 c2) | d4 d4 G4 c4 | %17
w: di vo- stro fal-|lir mor\-|* te so-|stie- ne.|Co-|si sem- pre fac- cia\- *|mo; et ne con-|
 c4 A8 A4 | B4 d4 c8 | B4 d8 ^c4 | d4 c8 =B4 | c4 G4 B4 B4 | A8- A8 | G4 G8 E4 | F4 G4 (A2 F2 B4) | %25
w: vie- ne, et|ne con- vie-|ne la- men-|tar più I'~al-|trui ch'el no- str'er-|ro\- *|re, la- men-|tar più l'al\- * *|
 F8 z8 | z4 c8 =B4 | c4 B8 A4 | G8 _E8 | D4 D4 d8 | c8 A8- | A8 B4 B4 | A8 G8 |] %33
w: trui,|la- men-|tar più l'al-|trui ch'el|no- str'er- ro-|re, ch'el|* no- str'er-|ro- re.|
V:4
 z8 D,8- | D,8 B,8- | B,4 B,4 _E,8- | E,8 B,,4 B,,4 | F,4 D,4 C,4 B,,4 | G,,8 D,8 | %6
w: Oc\-|* chi,|* pian- ge\-|* te; ac-|com- pa- gna- t'il|co- re,|
 z4 A,,4 D,4 B,,4 | (B,6 A,2 G,4) G,,4 | (B,,6 C,2 D,8) | G,,4 G,4 A,4 F,4 | D,4 F,4 B,,4 B,4- | %11
w: ac- com- pa-|gna\- * * fil|co\- * *|re, che di vo-|stro fal- lir mor\-|
 B,4 A,4 z8 | F,8 G,4 C,4 | C8 C,8 | z8 z4 C,4 | D,2 F,4 G,4 F,2 _E,4 | D,4 D,4 B,4 A,4 | %17
w: * te,|mor- te so-|stie- ne.|Co-|si sem- pre fac- cia-|mo; et ne con-|
 (F,6 E,2 D,6 C,2 | B,,8 F,8) | B,,8 z8 | z8 z8 | z8 z4 D,4- | D,4 ^C,4 D,4 =C,4- | %23
w: vie\- * * *||ne||la\-|* men- tar più|
 C,4 =B,,4 C,4 C4- | C4 =B,4 C4 _B,4- | B,4 A,4 B,8 | F,8 G,4 G,4 | _E,8 F,8 | z8 z4 G,4- | %29
w: * l'al- trui, la\-|* men- tar più|* l'al- trui|ch'el no- str'er-|ro- re,|la\-|
 G,4 ^F,4 G,4 =F,4- | F,4 E,4 F,4 F,4 | D,4 D,4 (B,,6 G,,2 | D,8) G,,8 |] %33
w: * men- tar più|* l'al- trui ch'el|no- str'er- ro\- *|* re.|

